ui/StatusQ/src/assets/img/icons/make-admin.svg

<svg fill="none" height="16" viewBox="0 0 16 16" width="16" xmlns="http://www.w3.org/2000/svg"><g fill="#4360df"><path clip-rule="evenodd" d="m11.3332 5.33333c0 1.84095-1.49241 3.33334-3.33336 3.33334s-3.33334-1.49239-3.33334-3.33334 1.49239-3.33333 3.33334-3.33333 3.33336 1.49238 3.33336 3.33333zm-1 0c0 1.28867-1.0447 2.33334-2.33336 2.33334-1.28867 0-2.33334-1.04467-2.33334-2.33334 0-1.28866 1.04467-2.33333 2.33334-2.33333 1.28866 0 2.33336 1.04467 2.33336 2.33333z" fill-rule="evenodd"/><path d="m8.07308 11.6671c.27932.0036.52659-.1994.54979-.4778.02265-.2718-.17712-.5135-.44979-.5204-.0576-.0015-.11539-.0022-.17335-.0022-2.02701 0-3.84273.9046-5.06544 2.3322-.15991.1867-.13899.4633.03483.6371.21587.2159.57321.1848.77488-.0444 1.03847-1.1802 2.56013-1.9249 4.25573-1.9249.02449 0 .04894.0001.07335.0004z"/><path d="m11.9987 9.29502c.1901-.17114.4788-.17114.669 0l1.6666 1.49998c.2053.1847.2219.5009.0372.7061-.1847.2053-.5009.2219-.7061.0372l-.2759-.2483c-.2145-.193-.5563-.0408-.5563.2478v1.7955c0 .2762-.2239.5-.5.5-.2762 0-.5-.2238-.5-.5v-1.7955c0-.2886-.3418-.4408-.5564-.2478l-.2758.2483c-.2053.1847-.5214.1681-.7061-.0372-.1848-.2052-.1681-.5214.0371-.7061z"/></g></svg>

<svg width="16" height="16" viewBox="0 0 16 16" fill="none" xmlns="http://www.w3.org/2000/svg">
<path fill-rule="evenodd" clip-rule="evenodd" d="M11.3332 5.33333C11.3332 7.17428 9.84079 8.66667 7.99984 8.66667C6.15889 8.66667 4.6665 7.17428 4.6665 5.33333C4.6665 3.49238 6.15889 2 7.99984 2C9.84079 2 11.3332 3.49238 11.3332 5.33333ZM10.3332 5.33333C10.3332 6.622 9.2885 7.66667 7.99984 7.66667C6.71117 7.66667 5.6665 6.622 5.6665 5.33333C5.6665 4.04467 6.71117 3 7.99984 3C9.2885 3 10.3332 4.04467 10.3332 5.33333Z" fill="#4360DF"/>
<path d="M8.07308 11.6671C8.3524 11.6707 8.59967 11.4677 8.62287 11.1893C8.64552 10.9175 8.44575 10.6758 8.17308 10.6689C8.11548 10.6674 8.05769 10.6667 7.99973 10.6667C5.97272 10.6667 4.157 11.5713 2.93429 12.9989C2.77438 13.1856 2.7953 13.4622 2.96912 13.636C3.18499 13.8519 3.54233 13.8208 3.744 13.5916C4.78247 12.4114 6.30413 11.6667 7.99973 11.6667C8.02422 11.6667 8.04867 11.6668 8.07308 11.6671Z" fill="#4360DF"/>
<path d="M11.9987 9.29502C12.1888 9.12388 12.4775 9.12388 12.6677 9.29502L14.3343 10.795C14.5396 10.9797 14.5562 11.2959 14.3715 11.5011C14.1868 11.7064 13.8706 11.723 13.6654 11.5383L13.3895 11.29C13.175 11.097 12.8332 11.2492 12.8332 11.5378V13.3333C12.8332 13.6095 12.6093 13.8333 12.3332 13.8333C12.057 13.8333 11.8332 13.6095 11.8332 13.3333V11.5378C11.8332 11.2492 11.4914 11.097 11.2768 11.29L11.001 11.5383C10.7957 11.723 10.4796 11.7064 10.2949 11.5011C10.1101 11.2959 10.1268 10.9797 10.332 10.795L11.9987 9.29502Z" fill="#4360DF"/>
</svg>
